public/formular-icons/english/lower-g.svg

<svg style="vertical-align:-.464ex" xmlns="http://www.w3.org/2000/svg" width="1.079ex" height="1.464ex" viewBox="0 -442 477 647" xmlns:xlink="http://www.w3.org/1999/xlink"><defs><path id="a" d="M311 43q-15-13-44-28T206 0q-63 0-101 45T66 160q0 105 77 193t171 89q47 0 87-48l3 4q2 3 5 6t9 8 13 7 16 3q14 0 23-9t10-19q0-15-57-242T363-80q-18-54-77-89t-135-36q-141 0-141 68 0 26 18 46t46 20q15 0 28-9t14-31q0-10-2-19t-7-14-8-10-7-8l-2-2h1q10-3 60-3 38 0 60 12 23 11 43 33t28 47q6 19 16 62 13 48 13 56Zm73 285-4 11q-3 11-5 15t-6 14-10 14-13 11-18 9-22 3q-44 0-85-53-30-39-50-119t-20-116q0-79 62-79 56 0 110 70l8 10 53 210Z"/></defs><g stroke="currentColor" fill="currentColor" stroke-width="0"><use data-c="1D454" xlink:href="#a" transform="scale(1 -1)"/></g></svg>

<svg style="vertical-align: -0.464ex" xmlns="http://www.w3.org/2000/svg" width="1.079ex" height="1.464ex" role="img" focusable="false" viewBox="0 -442 477 647" xmlns:xlink="http://www.w3.org/1999/xlink"><defs><path id="MJX-45-TEX-I-1D454" d="M311 43Q296 30 267 15T206 0Q143 0 105 45T66 160Q66 265 143 353T314 442Q361 442 401 394L404 398Q406 401 409 404T418 412T431 419T447 422Q461 422 470 413T480 394Q480 379 423 152T363 -80Q345 -134 286 -169T151 -205Q10 -205 10 -137Q10 -111 28 -91T74 -71Q89 -71 102 -80T116 -111Q116 -121 114 -130T107 -144T99 -154T92 -162L90 -164H91Q101 -167 151 -167Q189 -167 211 -155Q234 -144 254 -122T282 -75Q288 -56 298 -13Q311 35 311 43ZM384 328L380 339Q377 350 375 354T369 368T359 382T346 393T328 402T306 405Q262 405 221 352Q191 313 171 233T151 117Q151 38 213 38Q269 38 323 108L331 118L384 328Z"></path></defs><g stroke="currentColor" fill="currentColor" stroke-width="0" transform="scale(1,-1)"><g data-mml-node="math"><g data-mml-node="mi"><use data-c="1D454" xlink:href="#MJX-45-TEX-I-1D454"></use></g></g></g></svg>
